!! 00053] TT[KA
!! Kassette von Frau Li Wenzhen, Peking - Zum Gesangsheft
!!!OTL: Xiu he bao
!!!ARE: Asia, China, Shanxi Zhenba
!! Ethnic Group: Han
!! MM, Seite 20, 3
!!!SCT: C1334
!!!YEM: Copyright 1995, estate of Helmut Schaffrath.
**kern
*ICvox
*Ivox
*M2/4
*k[f#c#g#]
*A:
{8ff#
16aa
16bb
8aa
8bb
=1
8aa
4.ff#
=2
8ccc#
8aa
16bb
16aa
8bb
=3
2ccc#}
=4
{8eee
8ccc#
8ccc#
8bb
=5
8eee
8ccc#
16ccc#
16aa
32bb
32ccc#
16bb
=6
8aa
8bb
8aa
8ff#
=7
2ff#}
=8
{8ff#
8aa
8ccc#
8bb
=9
8aa
8bb
4aa}
=10
{8aa
8aa
8bb
8bb
=11
8eee
8ccc#
16ccc#
16aa
32bb
32ccc#
16bb
=12
8aa
8bb
8aa
8ff#
=13
2ff#}
==
!!!AGN: Xiaodiao. Xin minge
!! Die Stuecke sind meist uebersteuert, also verzerrt.
!!    Vereinzelt Verzierungen.
!!!ONB: ESAC (Essen Associative Code) Database: CHINA
!!!AMT: simple duple
!!!AIN: vox
!!!EED: Helmut Schaffrath
!!!EEV: 1.0
*-
